X:1
T:Title
%%score { 1 | ( 2 3 ) }
L:1/8
M:4/4
K:Db
V:1 treble nm="Grand Piano"
V:2 bass 
V:3 bass 
V:1
 z4 z2[Q:1/4=108] DE | F2 F2 _F2 =F2 | B2 A2 G2 F2 | F2 E2 E2 B2 |[M:3/4] B6 |[M:1/4] Bd | %6
[M:4/4] c2 B2 A2 G2 | [GB]2 [FA]2 [EG]2 [CE]2 | [DF]2 [FA]2 [E=G]2 [Gd]2 |[M:3/4] [EGc]6 | %10
[M:1/4] [CGB][Gc] |[M:4/4] [Fd]2 [Fd]4 [Gc][GB] | [GB]2 [FA]4 [A,EG][A,DF] | %13
 [A,CE]2 [CGB]2 [EGB]2 [CGB]2 |[M:3/4] B6 |[M:1/4] BB |[M:4/4] e2 c4 Bc | [Fd]2 [FA]4 DE | %18
 F2 AG [A,DF]2[K:bass] [G,CE]2 |[M:3/4] [F,D]6 |] %20
V:2
 z4 z2 [D,F,][D,G,D] | [D,A,D]2 [D,A,D]2 [D,=G,D]2 [D,A,D]2 | [D,G,D]2 [D,F,D]2 [D,B,D]2 [D,A,D]2 | %3
 [G,B,D]2 [G,B,D]2 [G,B,D]2 [G,DE]2 |[M:3/4] [G,DE]6 |[M:1/4][K:treble] [=G,DE][G,B,E] | %6
[M:4/4] [A,E]2 [A,G]2 [A,F]2[K:bass] [A,E]2 | [A,,A,]2 [A,,A,]2 [A,,A,]2 [A,,A,]2 | %8
 [D,A,]2 [D,D]2 [E,D]2 [E,B,]2 |[M:3/4] A,,6 |[M:1/4] A,A, |[M:4/4] [D,A,]2 [D,A,]4 [D,B,][D,C] | %12
 [D,D]2 [D,D]4 D,D, | A,,2 A,,2 C,2 E,2 |[M:3/4][K:treble] [A,CG]6 |[M:1/4] [A,CG][A,CG] | %16
[M:4/4] [A,CG]2 [A,EG]4 [A,CG][A,G] | [D,A,]2 [D,D]4 [F,A,][G,B,D] | %18
 [A,D]2[K:treble] FE[K:bass] A,,2 A,,2 |[M:3/4] D,6 |] %20
V:3
 x8 | x8 | x8 | x8 |[M:3/4] x6 |[M:1/4][K:treble] x2 |[M:4/4] x6[K:bass] x2 | x8 | x8 |[M:3/4] x6 | %10
[M:1/4] x2 |[M:4/4] x8 | x8 | x8 |[M:3/4][K:treble] x6 |[M:1/4] x2 |[M:4/4] x8 | x8 | %18
 z2[K:treble] A,2[K:bass] z4 |[M:3/4] x6 |] %20

